packages/designmanual/images/film_illustrasjon.svg

<?xml version="1.0" encoding="UTF-8"?>
<svg width="187px" height="181px" viewBox="0 0 187px 181px" version="1.1" xmlns="http://www.w3.org/2000/svg" xmlns:xlink="http://www.w3.org/1999/xlink">
    <!-- Generator: Sketch 55 (78076) - https://sketchapp.com -->
    <title>Layer_9_copy</title>
    <desc>Created with Sketch.</desc>
    <defs>
        <path d="M77.714236,146.236096 C75.1936749,143.158652 73.9334132,139.413932 73.9334132,135.001825 L80.141227,135.001825 C80.4053906,138.068239 80.9777365,140.29632 81.8582819,141.686134 C83.3992363,144.178974 86.1839193,145.425376 90.2124144,145.425376 C93.3383504,145.425376 95.8478671,144.587088 97.7410396,142.910487 C99.6342122,141.233886 100.580784,139.071986 100.580784,136.424722 C100.580784,133.159763 99.5846822,130.876532 97.5924483,129.57496 C95.6002144,128.273388 92.8320415,127.622612 89.2878463,127.622612 C88.8916009,127.622612 88.4898581,127.628127 88.0826059,127.639158 C87.6753537,127.650188 87.2626042,127.666733 86.8443451,127.688794 L86.8443451,122.427382 C87.4607269,122.493564 87.9780396,122.537684 88.3962986,122.559745 C88.8145577,122.581805 89.2658304,122.592835 89.7501303,122.592835 C91.9735074,122.592835 93.8006116,122.239872 95.2314979,121.533935 C97.7410522,120.298545 98.9958105,118.092524 98.9958105,114.915807 C98.9958105,112.55533 98.159305,110.735363 96.4862688,109.455852 C94.8132325,108.176341 92.8650551,107.536595 90.6416781,107.536595 C86.6792239,107.536595 83.9385675,108.860207 82.4196268,111.507471 C81.5831087,112.963467 81.1098226,115.037126 80.9997545,117.728511 L75.1221435,117.728511 C75.1221435,114.198826 75.8265692,111.198638 77.2354418,108.727858 C79.6569416,104.315751 83.9165159,102.10973 90.0142926,102.10973 C94.8352785,102.10973 98.5665336,103.185165 101.20817,105.336067 C103.849806,107.48697 105.170604,110.602974 105.170604,114.684173 C105.170604,117.596163 104.389132,119.956605 102.826164,121.765569 C101.857564,122.890657 100.602805,123.773065 99.0618511,124.41282 C101.549392,125.096697 103.492066,126.414794 104.889932,128.367152 C106.287797,130.319509 106.98672,132.707526 106.98672,135.531275 C106.98672,140.053685 105.500822,143.737739 102.528981,146.583548 C99.5571405,149.429357 95.3415928,150.85224 89.8822115,150.85224 C84.2907484,150.85224 80.2347971,149.313541 77.714236,146.236096 Z" id="path-1"></path>
    </defs>
    <g id="ndla.no" stroke="none" stroke-width="1" fill="none" fill-rule="evenodd">
        <g id="redesign-hover-1" transform="translate(-597.000000, -1177.000000)">
            <g id="Group-9" transform="translate(525.000000, 1135.000000)">
                <g id="Group-3">
                    <g id="Layer_9_copy" transform="translate(72.000000, 42.000000)">
                        <g id="Group-15">
                            <g id="Group-10" transform="translate(0.436010, 0.000000)">
                                <polygon id="Rectangle-path" fill="#FFFFFF" fill-rule="nonzero" points="5.96855898e-13 0.436939314 186.370207 0.436939314 186.370207 183.902902 5.96855898e-13 183.902902"></polygon>
                                <polygon id="Rectangle-path" fill="#012242" fill-rule="nonzero" points="34.9292746 78.4063325 150.181347 78.4063325 150.181347 173.659103 34.9292746 173.659103"></polygon>
                                <polygon id="Rectangle-path" fill="#012242" fill-rule="nonzero" points="6.92772021 0.436939314 24.9494819 0.436939314 24.9494819 13.0110818 6.92772021 13.0110818"></polygon>
                                <polygon id="Rectangle-path" fill="#012242" fill-rule="nonzero" points="160.064249 0.534036939 178.08601 0.534036939 178.08601 11.8459103 160.064249 11.8459103"></polygon>
                                <polygon id="Rectangle-path" fill="#012242" fill-rule="nonzero" points="7.31528497 30.585752 25.3370466 30.585752 25.3370466 48.985752 7.31528497 48.985752"></polygon>
                                <polygon id="Rectangle-path" fill="#012242" fill-rule="nonzero" points="7.36373057 67.8712401 25.3854922 67.8712401 25.3854922 86.2712401 7.36373057 86.2712401"></polygon>
                                <polygon id="Rectangle-path" fill="#012242" fill-rule="nonzero" points="7.26683938 105.302375 25.288601 105.302375 25.288601 123.702375 7.26683938 123.702375"></polygon>
                                <polygon id="Rectangle-path" fill="#012242" fill-rule="nonzero" points="7.26683938 142.442216 25.288601 142.442216 25.288601 160.842216 7.26683938 160.842216"></polygon>
                                <polygon id="Rectangle-path" fill="#012242" fill-rule="nonzero" points="7.21839378 179.387863 25.2401554 179.387863 25.2401554 183.902902 7.21839378 183.902902"></polygon>
                                <polygon id="Rectangle-path" fill="#012242" fill-rule="nonzero" points="159.579793 179.339314 177.601554 179.339314 177.601554 183.951451 159.579793 183.951451"></polygon>
                                <polygon id="Rectangle-path" fill="#012242" fill-rule="nonzero" points="159.967358 142.29657 177.989119 142.29657 177.989119 160.69657 159.967358 160.69657"></polygon>
                                <polygon id="Rectangle-path" fill="#012242" fill-rule="nonzero" points="159.72513 105.059631 177.746891 105.059631 177.746891 123.459631 159.72513 123.459631"></polygon>
                                <polygon id="Rectangle-path" fill="#012242" fill-rule="nonzero" points="159.822021 67.4828496 177.843782 67.4828496 177.843782 85.8828496 159.822021 85.8828496"></polygon>
                                <polygon id="Rectangle-path" fill="#012242" fill-rule="nonzero" points="159.967358 30.4886544 177.989119 30.4886544 177.989119 48.8886544 159.967358 48.8886544"></polygon>
                                <path d="M90.9323834,78.260686 L90.9323834,173.901847" id="Shape" stroke="#507AA4"></path>
                                <ellipse id="Oval" stroke="#507AA4" cx="91.1261658" cy="126.906596" rx="42.6805699" ry="41.0722955"></ellipse>
                                <path d="M34.8323834,125.692876 L150.472021,126.421108" id="Shape" stroke="#507AA4"></path>
                                <g id="3" fill="#FFFFFF">
                                    <use xlink:href="#path-1"></use>
                                    <use xlink:href="#path-1"></use>
                                </g>
                                <ellipse id="Oval" stroke="#507AA4" cx="90.8839378" cy="127.634828" rx="32.6523316" ry="32.0422164"></ellipse>
                                <polyline id="Shape" fill="#012242" fill-rule="nonzero" points="141.606477 0.436939314 150.472021 0.436939314 150.472021 56.5108179 35.5106218 56.5108179 35.5106218 0.436939314 141.606477 0.436939314"></polyline>
                                <path d="M132.54715,0.242744063 C133.612953,3.8353562 134.194301,7.6707124 134.194301,11.6031662 C134.194301,34.2754617 115.106736,52.6754617 91.5137306,52.6754617 C67.9207254,52.6754617 48.8331606,34.2754617 48.8331606,11.6031662 C48.8331606,7.57361478 49.4145078,3.68970976 50.5772021,3.90798505e-14" id="Shape" stroke="#507AA4"></path>
                                <path d="M62.0588083,0.582585752 C60.3147668,4.46649077 59.3458549,8.78733509 59.3458549,13.3023747 C59.3458549,30.8770449 73.9764249,45.101847 91.9981865,45.101847 C110.019948,45.101847 124.650518,30.8770449 124.650518,13.3023747 C124.650518,8.73878628 123.633161,4.36939314 121.840674,0.436939314" id="Shape" stroke="#507AA4"></path>
                                <path d="M90.8839378,0.436939314 L90.9370628,56.9963061" id="Shape" stroke="#507AA4"></path>
                                <path d="M35.5106218,10.1467018 L150.762694,10.8263852" id="Shape" stroke="#507AA4"></path>
                                <path d="M86.0878238,29.5176781 L86.0878238,29.3720317 L89.188342,26.16781 C97.3756477,17.3319261 102.559326,10.8263852 102.559326,2.81583113 C102.559326,1.99050132 102.462435,1.31081794 102.317098,0.485488127 C100.330829,0.485488127 98.9259067,0.485488127 96.8911917,0.485488127 C97.1818653,1.50501319 97.3272021,2.42744063 97.3272021,3.54406332 C97.2787565,10.098153 92.7733161,15.7298153 82.8904145,26.3134565 L78.7725389,30.7799472 L78.7725389,34.3725594 L103.528238,34.3725594 L103.528238,29.4691293 L86.0878238,29.4691293 L86.0878238,29.5176781 Z" id="Shape" fill="#FFFFFF" fill-rule="nonzero"></path>
                            </g>
                        </g>
                    </g>
                </g>
            </g>
        </g>
    </g>
</svg>

<?xml version="1.0" encoding="UTF-8"?>
<svg version="1.1" viewBox="0 0 187px 181px" xmlns="http://www.w3.org/2000/svg" xmlns:xlink="http://www.w3.org/1999/xlink">
<title>NDLA Film illustration</title>
<defs>
<path id="a" d="m77.714 146.24c-2.5206-3.0774-3.7808-6.8222-3.7808-11.234h6.2078c0.26416 3.0664 0.83651 5.2945 1.7171 6.6843 1.541 2.4928 4.3256 3.7392 8.3541 3.7392 3.1259 0 5.6355-0.83829 7.5286-2.5149 1.8932-1.6766 2.8397-3.8385 2.8397-6.4858 0-3.265-0.9961-5.5482-2.9883-6.8498s-4.7604-1.9523-8.3046-1.9523c-0.39625 0-0.79799 0.005515-1.2052 0.016546-0.40725 0.01103-0.82 0.027575-1.2383 0.049636v-5.2614c0.61638 0.066182 1.1337 0.1103 1.552 0.13236 0.41826 0.02206 0.86953 0.03309 1.3538 0.03309 2.2234 0 4.0505-0.35296 5.4814-1.0589 2.5096-1.2354 3.7643-3.4414 3.7643-6.6181 0-2.3605-0.83651-4.1804-2.5095-5.46-1.673-1.2795-3.6212-1.9193-5.8446-1.9193-3.9625 0-6.7031 1.3236-8.2221 3.9709-0.83652 1.456-1.3098 3.5297-1.4199 6.221h-5.8776c0-3.5297 0.70443-6.5299 2.1133-9.0007 2.4215-4.4121 6.6811-6.6181 12.779-6.6181 4.821 0 8.5522 1.0754 11.194 3.2263 2.6416 2.1509 3.9624 5.2669 3.9624 9.3481 0 2.912-0.78147 5.2724-2.3444 7.0814-0.9686 1.1251-2.2234 2.0075-3.7643 2.6473 2.4875 0.68388 4.4302 2.002 5.8281 3.9543 1.3979 1.9524 2.0968 4.3404 2.0968 7.1641 0 4.5224-1.4859 8.2065-4.4577 11.052-2.9718 2.8458-7.1874 4.2687-12.647 4.2687-5.5915 0-9.6474-1.5387-12.168-4.6161z"/>
</defs>
<g fill="none" fill-rule="evenodd">
<g transform="translate(-597 -1177)">
<g transform="translate(525 1135)">
<g transform="translate(72 42)">
<g transform="translate(.43601)">
<polygon points="5.9686e-13 0.43694 186.37 0.43694 186.37 183.9 5.9686e-13 183.9" fill="#fff" fill-rule="nonzero"/>
<polygon points="34.929 78.406 150.18 78.406 150.18 173.66 34.929 173.66" fill="#012242" fill-rule="nonzero"/>
<polygon points="6.9277 0.43694 24.949 0.43694 24.949 13.011 6.9277 13.011" fill="#012242" fill-rule="nonzero"/>
<polygon points="160.06 0.53404 178.09 0.53404 178.09 11.846 160.06 11.846" fill="#012242" fill-rule="nonzero"/>
<polygon points="7.3153 30.586 25.337 30.586 25.337 48.986 7.3153 48.986" fill="#012242" fill-rule="nonzero"/>
<polygon points="7.3637 67.871 25.385 67.871 25.385 86.271 7.3637 86.271" fill="#012242" fill-rule="nonzero"/>
<polygon points="7.2668 105.3 25.289 105.3 25.289 123.7 7.2668 123.7" fill="#012242" fill-rule="nonzero"/>
<polygon points="7.2668 142.44 25.289 142.44 25.289 160.84 7.2668 160.84" fill="#012242" fill-rule="nonzero"/>
<polygon points="7.2184 179.39 25.24 179.39 25.24 183.9 7.2184 183.9" fill="#012242" fill-rule="nonzero"/>
<polygon points="159.58 179.34 177.6 179.34 177.6 183.95 159.58 183.95" fill="#012242" fill-rule="nonzero"/>
<polygon points="159.97 142.3 177.99 142.3 177.99 160.7 159.97 160.7" fill="#012242" fill-rule="nonzero"/>
<polygon points="159.73 105.06 177.75 105.06 177.75 123.46 159.73 123.46" fill="#012242" fill-rule="nonzero"/>
<polygon points="159.82 67.483 177.84 67.483 177.84 85.883 159.82 85.883" fill="#012242" fill-rule="nonzero"/>
<polygon points="159.97 30.489 177.99 30.489 177.99 48.889 159.97 48.889" fill="#012242" fill-rule="nonzero"/>
<path d="m90.932 78.261v95.641" stroke="#507AA4"/>
<ellipse cx="91.126" cy="126.91" rx="42.681" ry="41.072" stroke="#507AA4"/>
<path d="m34.832 125.69l115.64 0.72823" stroke="#507AA4"/>
<g fill="#fff">
<use xlink:href="#a"/>
<use xlink:href="#a"/>
</g>
<ellipse cx="90.884" cy="127.63" rx="32.652" ry="32.042" stroke="#507AA4"/>
<polyline points="141.61 0.43694 150.47 0.43694 150.47 56.511 35.511 56.511 35.511 0.43694 141.61 0.43694" fill="#012242" fill-rule="nonzero"/>
<path d="m132.55 0.24274c1.0658 3.5926 1.6472 7.428 1.6472 11.36 0 22.672-19.088 41.072-42.681 41.072-23.593 0-42.681-18.4-42.681-41.072 0-4.0296 0.58135-7.9135 1.744-11.603" stroke="#507AA4"/>
<path d="m62.059 0.58259c-1.744 3.8839-2.713 8.2047-2.713 12.72 0 17.575 14.631 31.799 32.652 31.799 18.022 0 32.652-14.225 32.652-31.799 0-4.5636-1.0174-8.933-2.8098-12.865" stroke="#507AA4"/>
<path d="m90.884 0.43694l0.053125 56.559" stroke="#507AA4"/>
<path d="m35.511 10.147l115.25 0.67968" stroke="#507AA4"/>
<path d="m86.088 29.518v-0.14565l3.1005-3.2042c8.1873-8.8359 13.371-15.341 13.371-23.352 0-0.82533-0.096891-1.505-0.24223-2.3303h-5.4259c0.29067 1.0195 0.43601 1.942 0.43601 3.0586-0.048446 6.5541-4.5539 12.186-14.437 22.769l-4.1179 4.4665v3.5926h24.756v-4.9034h-17.44v0.048549z" fill="#fff" fill-rule="nonzero"/>
</g>
</g>
</g>
</g>
</g>
</svg>
